toothbrush-paste.svg

<svg fill="currentColor" viewBox="0 0 24 24"><path d="m17.86 1.5-4.95 4.93 2.12 2.12 1.06-1.05-1.06-1.07 2.83-2.83 1.06 1.06L20 3.6m1.4 0-5.84 5.84-2.13.71L3 20.57 4.43 22l5.65-5.67 4.25 4.24 4.24-4.24-4.24-4.24.17-.19 2.13-.71 4.77-4.76c.78-.78.78-2.05 0-2.83m-14.85.71L2.31 8.55l4.95 4.95 4.24-4.24m6.72 8.84-2.13 2.12 1.41 1.41 2.13-2.13Z"/></svg>

<svg  viewBox="0 0 24 24" fill="currentColor"><path  d="M17.86 1.5L12.91 6.43L15.03 8.55L16.09 7.5L15.03 6.43L17.86 3.6L18.92 4.66L20 3.6M21.4 3.6L15.56 9.44L13.43 10.15L3 20.57L4.43 22L10.08 16.33L14.33 20.57L18.57 16.33L14.33 12.09L14.5 11.9L16.63 11.19L21.4 6.43C22.18 5.65 22.18 4.38 21.4 3.6M6.55 4.31L2.31 8.55L7.26 13.5L11.5 9.26M18.22 18.1L16.09 20.22L17.5 21.63L19.63 19.5Z"/></svg>
